X:1
T:ANGUSTIA
T:ANGUSTIA
T:ROMANZA SIN PALABRAS
T:Isaac Albeniz
T:by IMSLP - Public Domain
T:by IMSLP - Public Domain
T:by IMSLP - Public Domain
C:Isaac Albeniz
Z:by IMSLP - Public Domain
%%score { ( 1 4 5 ) | ( 2 3 ) }
L:1/8
Q:1/4=120
M:3/4
K:G
V:1 treble nm="Piano" snm="Pno."
V:4 treble 
V:5 treble 
V:2 treble 
V:3 treble 
V:1
"^Agitato" z [ce] z [ce] z [ce] | z [eg] z [eg] z [eg] | z [ceg] z [ceg] z [ceg] | %3
 z [cef] z [cef] z [cef] | z [eac'] z [eac'] z [eac'] | z [eac'] z [eac'] z [eac'] | %6
 z [eac'] z [eac'] z [eac'] | z [eab] z [eab] z [eab] |!8va(! [gbg']2 [fbf']2 [ebe']2 | %9
 [da-d']4 [cac']2!8va)! | [cdgc']6 | [Bb]4 [Bb]2 | [ebe']6 | [Aea]3 [Aa] [Aa][Aa] | [dad']6 | %15
 [Gg]3 [Gg] [Aa][Bb] | [Bdgb]3!8va(! [dd'] [gg'][bb'] | [aa'][gg'] [dd'][Bb]!8va)! [Gg]>[Ff] | %18
 [G^cf]4 [Ee]2 | d6- | d6 | a6 | a6 | a6 | a6 | g2 a2 b2 | c'2 d'2 e'2 | c'2 d'2 c'2 | g6 | b6 | %30
 z [d=fa] z [dfa] z [dfa] | b6 | z [Bde] z [Bde] z [Bde] | a2 b2 c'2 | e'4 d'2 | d'2 b2 d'2 | %36
 c'4 c'2 | c'4 c'2 | b4 a2 | a4 g2 | f6 | f4 f2 | a6 | a6 | a6 | a4 g2 | c'6 | %47
 z [cef] z [cef] z [cef] | e'6 | e'4 e'2 |!8va(! g'6!8va)! | g4 g2 | g6 | g4 g2 | %54
 z [Be] z [Be] z [Be] | z [eg] z [eg] z [eg] | z [ceg] z [ceg] z [ceg] | z [cef] z [cef] z [cef] | %58
 z [eac'] z [eac'] z [eac'] | z [eac'] z [eac'] z [eac'] | z [eac'] z [eac'] z [eac'] | %61
 z [eab] z [eab] z [eab] |!8va(! [gbg']2 [fbf']2 [ebe']2 | [da-d']4 [cac']2!8va)! | [cdgc']6 | %65
 [Bb]4 [Bb]2 |!8va(! [ebe']6!8va)! | [Aea]3 [Aa] [Aa][Aa] | [dad']6 | [Gg]3 [Ga] [Ga][Ga] | %70
 [cfc']6 | [Ff]3 [Ff] [Ff][Ff] | [Beb]6- | [Beb]4 [Ee]2 | [Beb]6 | [Aea]2 [^c^c']2 [eae']2 | %76
 [e^ge']6- | [ege']6 | [^g^c'e'^g']6 | [^gb^d'g']4 [ff']2 | [e^gbe'][Beg] z [B,E^GB] z [B,EGB] | %81
 z [B,E^GB] z [B,EGB] z [B,EGB] | A2 c2 e2 | f2 a2 c'2 | [e^gbe'][Beg] z [B,E^GB] z [B,EGB] | %85
!pp! z [B,E^GB] z [B,EGB] z [B,EGB] | A2 c2 e2 | f2 a2 c'2 |"_dim." [e^gbe']6- | [egbe']2 z2 z2 | %90
 [^gbe'^g']6 | !fermata![^G,B,E^G]6 |] %92
V:2
 E2 F2 G2 | B4 B2 | B6 | A6 | F2 G2 A2 | e4 e2 | e6 | ^d4 B2 |[K:bass] E,,B,, E,F, G,B, | %9
 F,,D, A,^C DA | G,,D, G,[K:treble]^C DF | G^C ED B,G, |[K:bass] =C,^G, A,[K:treble]^D =FE | %13
[K:bass] =C,^E, F,A, ED | B,,F, G,^C ED | E,^A, B,[K:treble]E FG |[K:bass] A,,E, DB, DE, | %17
 A,,E, B,E, DE, | A,,^G,[K:treble] A,^B, ^C=G |[K:bass] D,2 A,2 D2 | E2 F2 D2 | F,2 C2 E2 | G4 F2 | %23
 [B,-E]6 | [B,^D]6 | E,^D FE B,E, | A,,E, F,^G, A,F | D,^E, F,B,{/=D} CB, | E,,B,, ^D,E, G,B, | %29
 [B,,=D]2[K:treble] =F2 A2 | c4 B2 |[K:bass]!ped! A6!ped-up! | ^G6 | C,^D =FE CA, | %34
 B,,=F, A,[K:treble]D =FB |[K:bass] =F2 A2 ^G2 | A,^D =FE A,2 | G,^A, B,^C E2 | F,A, B,^E F2 | %39
 E,^A, CB, E2 | (A,,^E, F,A,[K:treble] C=E) | G4 F2 |[K:bass] C3 B, DC | ^G,B, A,^D, =F,E, | %44
 C,2 F,A,[K:treble] CE | B4 C2 | e3 ^E FG | BA FC B,C |[K:bass] ^A,,2 E,G, ^A,E |[K:treble] ^A6 | %50
[K:bass] B,,2 ^A,2 B,2 |[K:treble] ^DE AG EB, |[K:bass] z2 ^C4 | z2 A4 |[K:treble] E2 F2 G2 | %55
 B4 B2 | B6 | A6 | F2 G2 A2 | e4 e2 | e6 | ^d4 B2 |[K:bass] E,,B,, E,F, G,B, | F,,D, A,^C DA | %64
 G,,D, G,[K:treble]^C DF | G^C ED B,G, |[K:bass] =C,^G, A,[K:treble]^D =FE | %67
[K:bass] C,^E, F,A, =ED | B,,F, G,^C ED | =E,^A, B,^D FE | A,,^E, F,A, C=E | ^DB, ^A,=A, ^D,A,, | %72
 ^G,,E, ^G,B, ^C^D | EB, ^G,E, ^^F,,^G,, | F,,^C, E,A, ^CE | FE ^CA, F,C, | B,,^G, ^^F,G, B,E | %77
[K:treble] A^G ^cB GE |[K:bass] B,,F, ^A,E[K:treble] Fe |[K:bass] B,,F, A,B, ^DA | E,,2 B,,2 E,2 | %81
 ^G,2 B,2 E2 | E,,2 F4 | z2 C2 F,2 | E,,2 B,,2 E,2 | ^G,2 B,2 E2 | E,,2 F4 | z2 C2 F,2 | %88
 (E,,B,, E,^G, B,E |[K:treble] ^GB e^g be') | [EBe]6 |[K:bass] !fermata![E,,B,,E,]6 |] %92
V:3
 x6 | x6 | C6- | C6 | x6 | x6 | F6- | F4 x2 |[K:bass] x6 | x6 | x3[K:treble] x3 | x6 | %12
[K:bass] x3[K:treble] x3 |[K:bass] x6 | x6 | x3[K:treble] x3 |[K:bass] x6 | x6 | x2[K:treble] x4 | %19
[K:bass] x6 | x6 | x6 | x6 | x6 | x6 | x6 | x6 | x6 | x6 | x2[K:treble] x4 | x6 |[K:bass] E,6- | %32
 E,6 | x6 | x3[K:treble] x3 |[K:bass] E,6 | x6 | x6 | x6 | x6 | x4[K:treble] x2 | x6 |[K:bass] x6 | %43
 x6 | x4[K:treble] x2 | x6 | x6 | x6 |[K:bass] x6 |[K:treble] x6 |[K:bass] x6 |[K:treble] x6 | %52
[K:bass] B,,6 | B,,6 |[K:treble] x6 | x6 | C6- | C6 | x6 | x6 | F6- | F4 x2 |[K:bass] x6 | x6 | %64
 x3[K:treble] x3 | x6 |[K:bass] x3[K:treble] x3 |[K:bass] x6 | x6 | x6 | x6 | x6 | x6 | x6 | x6 | %75
 x6 | x6 |[K:treble] x6 |[K:bass] x4[K:treble] x2 |[K:bass] x6 | x6 | x6 | x6 | x6 | x6 | x6 | x6 | %87
 x6 | x6 |[K:treble] x6 | x6 |[K:bass] x6 |] %92
V:4
 x6 | x6 | x6 | x6 | x6 | x6 | x6 | x6 |!8va(! x6 | x6!8va)! | x6 | x6 | x6 | x6 | x6 | x6 | %16
 x3!8va(! x3 | x4!8va)! x2 | x6 | z [FA] z [FA] z [FA] | z [FA] z [FA] z [FA] | %21
 z [Ae] z [Ae] z [Ae] | z [ce] z [ce] z [ce] | z [cf] z [cf] z [cf] | z [cf] z [cf] z [cf] | %25
 z [Be] z [Be] z [eg] | z [ea] z [ac'] z [ec'] | z [A^d] z [A=d] z [Ad] | z [Be] z [Be] z [Be] | %29
 z [d=fa] z [dfa] z [dfa] | x6 | B[Bd=f] z [Bdf] z [Bdf] | x6 | z [ce] z [ea] z [ea] | %34
 z [ab] z [ab] z [=fa] | z [=fa] z [d^f] z [de] | z [ea] z [ea] z [ea] | z [ea] z [ea] z [ea] | %38
 z [B^d] z [Bd] z [Bd] | z [B^d] z [Bd] z [Be] | z [ce] z [ce] z [ce] | z [ce] z [ce] z [ce] | %42
 z [ef] z [ef] z [ef] | z [ef] z [ef] z [ef] | z [ef] z [ef] z [ef] | z [B^d] z [Bd] z [Be] | %46
 z [fa] z [fa] z [fa] | x6 | z [g^c'] z [gc'] z [gc'] | z [g^c'] z [gc'] z [gc'] | %50
!8va(! z [be'] z [be'] z [be']!8va)! | z [Be] z [Be] z [Be] | z [^Ae] z [Ae] z [Ae] | %53
 z [B^d] z [Bd] z [Bd] | x6 | x6 | x6 | x6 | x6 | x6 | x6 | x6 |!8va(! x6 | x6!8va)! | x6 | x6 | %66
!8va(! x6!8va)! | x6 | x6 | x6 | x6 | x6 | x6 | x6 | x6 | x6 | x6 | x6 | x6 | x6 | x6 | x6 | %82
 z [CEF] z [EFA] z [FAc] | z [Ace] z [cef] z [efa] | x6 | x6 | z [CEF] z [EFA] z [FAc] | %87
 z [Ace] z [cef] z [efa] | x6 | x6 | x6 | x6 |] %92
V:5
 x6 | x6 | x6 | x6 | x6 | x6 | x6 | x6 |!8va(! x6 | x6!8va)! | x6 | x6 | x6 | x6 | x6 | x6 | %16
 x3!8va(! x3 | x4!8va)! x2 | x6 | x6 | x6 | x6 | x6 | x6 | x6 | G2 A2 B2 | c2 e2 c2 | c2 B2 A2 | %28
 G6 | B6 | x6 | x6 | x6 | A2 B2 c2 | e4 d2 | d2 B2 d2 | c4 B2 | c4 B2 | B4 A2 | A4 G2 | F6 | %41
 F4 F2 | A6- | A6 | A6 | A4 G2 | c6 | x6 | e6 | e4 e2 |!8va(! g6!8va)! | G4 G2 | G6 | G4 F2 | x6 | %55
 x6 | x6 | x6 | x6 | x6 | x6 | x6 |!8va(! x6 | x6!8va)! | x6 | x6 |!8va(! x6!8va)! | x6 | x6 | x6 | %70
 x6 | x6 | x6 | x6 | x6 | x6 | x6 | x6 | x6 | x6 | x6 | x6 | x6 | x6 | x6 | x6 | x6 | x6 | x6 | %89
 x6 | x6 | x6 |] %92

